packages/kaspersky-hexa-ui-icons/src/iconsSVGs/16/Desktop.svg

<svg width="16" height="16" viewBox="0 0 16 16" fill="none" xmlns="http://www.w3.org/2000/svg">
<path fill-rule="evenodd" clip-rule="evenodd" d="M0.997559 3.64072C0.997559 2.17717 2.184 0.990723 3.64756 0.990723H12.352C13.8155 0.990723 15.002 2.17717 15.002 3.64072V9.29053C15.002 10.7541 13.8155 11.9405 12.352 11.9405H10.4101V13.7095H11.269C11.628 13.7095 11.919 14.0005 11.919 14.3595C11.919 14.7185 11.628 15.0095 11.269 15.0095H4.73057C4.37158 15.0095 4.08057 14.7185 4.08057 14.3595C4.08057 14.0005 4.37158 13.7095 4.73057 13.7095H5.58936V11.9405H3.64756C2.184 11.9405 0.997559 10.7541 0.997559 9.29053V3.64072ZM3.64756 10.6405C2.90197 10.6405 2.29756 10.0361 2.29756 9.29053V3.64072C2.29756 2.89514 2.90197 2.29072 3.64756 2.29072H12.352C13.0975 2.29072 13.702 2.89514 13.702 3.64072V9.29053C13.702 10.0361 13.0975 10.6405 12.352 10.6405H3.64756ZM6.88936 11.9405V13.7093H9.11007V11.9405H6.88936Z" fill="black"/>
</svg>

<svg xmlns="http://www.w3.org/2000/svg" width="16" height="16" fill="none" viewBox="0 0 16 16"><path fill="#000" fill-rule="evenodd" d="M.9976 3.6407c0-1.4635 1.1864-2.65 2.65-2.65h8.7044c1.4635 0 2.65 1.1865 2.65 2.65v5.6498c0 1.4636-1.1865 2.65-2.65 2.65h-1.9419v1.769h.8589a.65.65 0 1 1 0 1.3H4.7306a.65.65 0 1 1 0-1.3h.8588v-1.769H3.6476c-1.4636 0-2.65-1.1864-2.65-2.65zm2.65 6.9998c-.7456 0-1.35-.6044-1.35-1.35V3.6407c0-.7456.6044-1.35 1.35-1.35h8.7044c.7455 0 1.35.6044 1.35 1.35v5.6498c0 .7456-.6045 1.35-1.35 1.35zm3.2418 1.3v1.7688H9.11v-1.7688z"/></svg>
